assets/post/images/tree6.svg

<svg xmlns="http://www.w3.org/2000/svg" width="1839" height="736" overflow="hidden"><defs><clipPath id="a"><path d="M1994 67h1839v736H1994z"/></clipPath></defs><g clip-path="url(#a)" transform="translate(-1994 -67)"><path fill="#f0835c" fill-rule="evenodd" stroke="#000" stroke-miterlimit="8" stroke-width="9.167" d="M2406.5 151c0-43.354 35.37-78.5 79-78.5s79 35.146 79 78.5-35.37 78.5-79 78.5-79-35.146-79-78.5Z"/><text font-family="Courier New,Courier New_MSFontService,sans-serif" font-size="83" font-weight="700" transform="translate(2459.96 174)">G</text><path fill="#f8ccb9" fill-rule="evenodd" stroke="red" stroke-miterlimit="8" stroke-width="9.167" d="M2156.5 400.5c0-43.631 35.15-79 78.5-79s78.5 35.369 78.5 79-35.15 79-78.5 79-78.5-35.37-78.5-79Z"/><text fill="red" font-family="Courier New,Courier New_MSFontService,sans-serif" font-size="83" font-weight="700" transform="translate(2209.91 424)">P</text><path fill="#fdefe8" fill-rule="evenodd" stroke="red" stroke-miterlimit="8" stroke-width="9.167" d="M1998.5 704c0-43.354 35.37-78.5 79-78.5s79 35.146 79 78.5-35.37 78.5-79 78.5-79-35.146-79-78.5Z"/><text fill="red" font-family="Courier New,Courier New_MSFontService,sans-serif" font-size="83" font-weight="700" transform="translate(2052.09 727)">x</text><path fill="#f8ccb9" fill-rule="evenodd" stroke="red" stroke-miterlimit="8" stroke-width="9.167" d="M2670.5 400.5c0-43.631 35.37-79 79-79s79 35.369 79 79-35.37 79-79 79-79-35.37-79-79Z"/><text fill="red" font-family="Courier New,Courier New_MSFontService,sans-serif" font-size="83" font-weight="700" transform="translate(2724.5 424)">U</text><path fill="none" stroke="#000" stroke-miterlimit="8" stroke-width="9.167" d="M2290.5 344.893 2428.945 206.5m264.495 138.393L2540.5 206.5m-463 418.381L2179.526 456.5"/><path fill="#f0835c" fill-rule="evenodd" stroke="red" stroke-miterlimit="8" stroke-width="9.167" d="M3406.5 150c0-43.354 35.37-78.5 79-78.5s79 35.146 79 78.5-35.37 78.5-79 78.5-79-35.146-79-78.5Z"/><text fill="red" font-family="Courier New,Courier New_MSFontService,sans-serif" font-size="83" font-weight="700" transform="translate(3460.4 173)">G</text><path fill="#f8ccb9" fill-rule="evenodd" stroke="#000" stroke-miterlimit="8" stroke-width="9.167" d="M3156.5 400c0-43.354 35.37-78.5 79-78.5s79 35.146 79 78.5-35.37 78.5-79 78.5-79-35.146-79-78.5Z"/><text font-family="Courier New,Courier New_MSFontService,sans-serif" font-size="83" font-weight="700" transform="translate(3210.35 423)">P</text><path fill="#fdefe8" fill-rule="evenodd" stroke="red" stroke-miterlimit="8" stroke-width="9.167" d="M2998.5 703c0-43.354 35.37-78.5 79-78.5s79 35.146 79 78.5-35.37 78.5-79 78.5-79-35.146-79-78.5Z"/><text fill="red" font-family="Courier New,Courier New_MSFontService,sans-serif" font-size="83" font-weight="700" transform="translate(3052.53 726)">x</text><path fill="#f8ccb9" fill-rule="evenodd" stroke="#000" stroke-miterlimit="8" stroke-width="9.167" d="M3671.5 400c0-43.354 35.15-78.5 78.5-78.5s78.5 35.146 78.5 78.5-35.15 78.5-78.5 78.5-78.5-35.146-78.5-78.5Z"/><text font-family="Courier New,Courier New_MSFontService,sans-serif" font-size="83" font-weight="700" transform="translate(3724.94 423)">U</text><path fill="none" stroke="#000" stroke-miterlimit="8" stroke-width="9.167" d="M3291.5 343.893 3429.945 205.5m264.495 138.393L3541.5 205.5m-464 418.381L3179.526 455.5"/><path fill="#d74514" fill-rule="evenodd" d="M2910 342.5h90V286l90 113-90 113v-56.5h-90Z"/></g></svg>

<svg width="1839" height="736" xmlns="http://www.w3.org/2000/svg" xmlns:xlink="http://www.w3.org/1999/xlink" overflow="hidden"><defs><clipPath id="clip0"><rect x="1994" y="67" width="1839" height="736"/></clipPath></defs><g clip-path="url(#clip0)" transform="translate(-1994 -67)"><path d="M2406.5 151C2406.5 107.646 2441.87 72.5 2485.5 72.5 2529.13 72.5 2564.5 107.646 2564.5 151 2564.5 194.354 2529.13 229.5 2485.5 229.5 2441.87 229.5 2406.5 194.354 2406.5 151Z" stroke="#000000" stroke-width="9.16667" stroke-miterlimit="8" fill="#F0835C" fill-rule="evenodd"/><text font-family="Courier New,Courier New_MSFontService,sans-serif" font-weight="700" font-size="83" transform="matrix(1 0 0 1 2459.96 174)">G</text><path d="M2156.5 400.5C2156.5 356.869 2191.65 321.5 2235 321.5 2278.35 321.5 2313.5 356.869 2313.5 400.5 2313.5 444.13 2278.35 479.5 2235 479.5 2191.65 479.5 2156.5 444.13 2156.5 400.5Z" stroke="#FF0000" stroke-width="9.16667" stroke-miterlimit="8" fill="#F8CCB9" fill-rule="evenodd"/><text fill="#FF0000" font-family="Courier New,Courier New_MSFontService,sans-serif" font-weight="700" font-size="83" transform="matrix(1 0 0 1 2209.91 424)">P</text><path d="M1998.5 704C1998.5 660.646 2033.87 625.5 2077.5 625.5 2121.13 625.5 2156.5 660.646 2156.5 704 2156.5 747.354 2121.13 782.5 2077.5 782.5 2033.87 782.5 1998.5 747.354 1998.5 704Z" stroke="#FF0000" stroke-width="9.16667" stroke-miterlimit="8" fill="#FDEFE8" fill-rule="evenodd"/><text fill="#FF0000" font-family="Courier New,Courier New_MSFontService,sans-serif" font-weight="700" font-size="83" transform="matrix(1 0 0 1 2052.09 727)">x</text><path d="M2670.5 400.5C2670.5 356.869 2705.87 321.5 2749.5 321.5 2793.13 321.5 2828.5 356.869 2828.5 400.5 2828.5 444.13 2793.13 479.5 2749.5 479.5 2705.87 479.5 2670.5 444.13 2670.5 400.5Z" stroke="#FF0000" stroke-width="9.16667" stroke-miterlimit="8" fill="#F8CCB9" fill-rule="evenodd"/><text fill="#FF0000" font-family="Courier New,Courier New_MSFontService,sans-serif" font-weight="700" font-size="83" transform="matrix(1 0 0 1 2724.5 424)">U</text><path d="M0 0 138.445 138.393" stroke="#000000" stroke-width="9.16667" stroke-miterlimit="8" fill="none" fill-rule="evenodd" transform="matrix(1 0 0 -1 2290.5 344.893)"/><path d="M2693.44 344.893 2540.5 206.5" stroke="#000000" stroke-width="9.16667" stroke-miterlimit="8" fill="none" fill-rule="evenodd"/><path d="M0 0 102.026 168.381" stroke="#000000" stroke-width="9.16667" stroke-miterlimit="8" fill="none" fill-rule="evenodd" transform="matrix(1 0 0 -1 2077.5 624.881)"/><path d="M3406.5 150C3406.5 106.646 3441.87 71.5 3485.5 71.5 3529.13 71.5 3564.5 106.646 3564.5 150 3564.5 193.354 3529.13 228.5 3485.5 228.5 3441.87 228.5 3406.5 193.354 3406.5 150Z" stroke="#FF0000" stroke-width="9.16667" stroke-miterlimit="8" fill="#F0835C" fill-rule="evenodd"/><text fill="#FF0000" font-family="Courier New,Courier New_MSFontService,sans-serif" font-weight="700" font-size="83" transform="matrix(1 0 0 1 3460.4 173)">G</text><path d="M3156.5 400C3156.5 356.646 3191.87 321.5 3235.5 321.5 3279.13 321.5 3314.5 356.646 3314.5 400 3314.5 443.354 3279.13 478.5 3235.5 478.5 3191.87 478.5 3156.5 443.354 3156.5 400Z" stroke="#000000" stroke-width="9.16667" stroke-miterlimit="8" fill="#F8CCB9" fill-rule="evenodd"/><text font-family="Courier New,Courier New_MSFontService,sans-serif" font-weight="700" font-size="83" transform="matrix(1 0 0 1 3210.35 423)">P</text><path d="M2998.5 703C2998.5 659.646 3033.87 624.5 3077.5 624.5 3121.13 624.5 3156.5 659.646 3156.5 703 3156.5 746.354 3121.13 781.5 3077.5 781.5 3033.87 781.5 2998.5 746.354 2998.5 703Z" stroke="#FF0000" stroke-width="9.16667" stroke-miterlimit="8" fill="#FDEFE8" fill-rule="evenodd"/><text fill="#FF0000" font-family="Courier New,Courier New_MSFontService,sans-serif" font-weight="700" font-size="83" transform="matrix(1 0 0 1 3052.53 726)">x</text><path d="M3671.5 400C3671.5 356.646 3706.65 321.5 3750 321.5 3793.35 321.5 3828.5 356.646 3828.5 400 3828.5 443.354 3793.35 478.5 3750 478.5 3706.65 478.5 3671.5 443.354 3671.5 400Z" stroke="#000000" stroke-width="9.16667" stroke-miterlimit="8" fill="#F8CCB9" fill-rule="evenodd"/><text font-family="Courier New,Courier New_MSFontService,sans-serif" font-weight="700" font-size="83" transform="matrix(1 0 0 1 3724.94 423)">U</text><path d="M0 0 138.445 138.393" stroke="#000000" stroke-width="9.16667" stroke-miterlimit="8" fill="none" fill-rule="evenodd" transform="matrix(1 0 0 -1 3291.5 343.893)"/><path d="M3694.44 343.893 3541.5 205.5" stroke="#000000" stroke-width="9.16667" stroke-miterlimit="8" fill="none" fill-rule="evenodd"/><path d="M0 0 102.026 168.381" stroke="#000000" stroke-width="9.16667" stroke-miterlimit="8" fill="none" fill-rule="evenodd" transform="matrix(1 0 0 -1 3077.5 623.881)"/><path d="M2910 342.5 3000 342.5 3000 286 3090 399 3000 512 3000 455.5 2910 455.5Z" fill="#D74514" fill-rule="evenodd"/></g></svg>
